X: 1
T: James Forrester Rankine
M: 4/4
L: 1/8
R: reel
K: Cmaj
C2 E2 GAGE | c2 E2 GAGE | C2 E2 GAGE | GAGE cGEC |
B,2 D2 FGFD | B2 D2 FGFD | B2 B,C D^CDE | FEFG AGed |
c2 e2 gagf | c'2 e2 gage | c2 e2 gage | gage c'gec |
B2 d2 fgfd | b2 d2 fgfd | g^fga bgab | c'2 c2 c4 |
|: A2 f2 fgfd | e2 c2 cdcA | G2B2 BcBA | G^FGc edcB |
 A2 f2 fgfd | e2 c2 cdcA | G^FGA BGAB | c2 c2 c4 :|
